X:1
T:Title
%%score [ 1 2 3 4 ]
L:1/8
Q:1/4=160
M:2/2
K:Eb
V:1 treble nm="Soprano" snm="S."
V:2 treble nm="Alto" snm="A."
V:3 treble-8 nm="Tenor" snm="T."
V:4 bass nm="Bass" snm="B."
V:1
 z8 | z8 | F6 F2 | A4 G4 | A4 B4 | c8 | z8 | F6 F2 | A4 G4 | A4 B4 | c8 | z8 | z8 | z8 | z8 | z8 | %16
w: ||De la|Vir- gen|que pa-|rió||y del|ni- ño|que na-|ció,||||||
 c4 f4 | e6 e2 | d4 ((c4 | c2) =BA B4) | c8 | F6 F2 | A4 G4 | A6 B2 | c8 | F6 F2 | A4 G4 | A4 B4 | %28
w: ¿qué se|pue- de\_a-|cá sen-||tir?|Que su|Pa- dre|nos le|dió|Que su|Pa- dre|nos le|
 c8 | z8 | z8 | z8 | z8 | z8 | c4 f4 | e6 e2 | d4 ((c4 | c2) =B2 B4) | (c6 BA | G8) | z8 | c4 f4 | %42
w: dió||||||pa- ra\_el|mun- do|re- di-||mir, * *|||pa- ra\_el|
 e6 e2 | d4 c4 | A2 G2 A2 B2 | c2 d2 (e4 | e2) d2 (c4 | c4) =B4 | c4 z2 c2 | B2 G2 A2 F2 | %50
w: mun- do|re- *||||* di-|mir. ¡Oh|Vir- gen dig- na|
 B2 A2 G4 | F8 | z8 | z4 c4 | B2 G2 A2 F2 | B2 A2 G4 | F8 | z4 G4 | A4 z2 G2 | A4 z2 G2 | %60
w: de ser ma-|dre!||¡Oh|Vir- gen dig- na|de ser ma-|dre!|¿de|quién? ¿de|quién? de|
 A4 z2 G2 | A2 G2 F4 | E2 c2 B2 G2 | A2 F2 B2 A2 | G4 F2 z2 | z8 | z4 c4 | B2 G2 A4 | G4 z4 | %69
w: Dios, de|Dios e- ter-|no de Dios e-|ter- no\_i- gual al|Pa- dre,||de|Dios e- ter-|no,|
 F4 B2 A2 | G4 F4 | z2 G2 A4 | z2 G2 A4 | z2 G2 A2 G2 | F4 E2 A2 | G2 G2 F2 A2 | G2 F2 =E4 | F8 |] %78
w: de Dios e-|ter- no,|¿de quién?|de Dios,|de Dios e-|ter- no, de|Dios e- ter- no\_i-|gual al Pa-|dre.|
V:2
 z8 | z8 | F6 F2 | F4 =E4 | F4 _D4 | C8 | z8 | F6 F2 | F4 =E4 | F4 _D4 | C8 | z8 | z8 | C4 F4 | %14
w: ||De la|Vir- gen|que pa-|rió||y del|ni- ño|que na-|ció,|||¿qué se|
 E6 E2 | D4 C4 | (C2 B,A, B,4) | C4 G4 | F4 E4 | D4 D4 | C8 | z4 F2 F2 | F4 =E4 | F4 _D4 | C8 | %25
w: pue- de\_a-|cá sen-|tir? * * *|¿qué se|pue- de\_a-|cá sen-|tir?|Que su|Pa- dre|nos le|dió|
 z4 F2 F2 | F4 =E4 | F4 _D4 | C8 | z8 | z8 | C4 F4 | E6 E2 | D4 ((C4 | C2) B,A,) B,4 | C4 G4 | %36
w: Que su|Pa- dre|nos le|dió|||pa- ra\_el|mun- do|re- di-|* * * mir,|pa- ra\_el|
 F4 E4 | D4 D4 | C8 | z4 C2 C2 | B,2 A,2 G,2 F,2 | A,4 F,4 | G,8 | z4 C4 | F4 _D4 | C4 (G4 | %46
w: mun- do|re- di-|mir,|pa- ra\_el|mun- do re- *|* di-|mir,|pa-|ra\_el mun-|do re-|
 G2) F2 A4 | G8 | E4 z2 C2 | D2 E2 F2 A2 | G2 F2 =E4 | F8 | z8 | z4 C4 | D2 E2 F2 A2 | G2 F2 =E4 | %56
w: |di-|mir. ¡Oh|Vir- gen dig- na|de ser ma-|dre!||¡Oh|Vir- gen dig- na|de ser ma-|
 F8 | z8 | z4 =E4 | F4 z2 =E2 | F4 z2 E2 | D2 E2 C4 | C2 C2 D2 E2 | F2 A2 G2 F2 | =E4 F2 z2 | z8 | %66
w: dre!||¿de|quién? de|Dios, de|Dios e- ter-|no de Dios e-|ter- no\_i- gual al|Pa- dre,||
 z4 C4 | D2 E2 F4 | B,4 z4 | A4 G2 F2 | =E4 F4 | z2 =E2 F4 | z2 =E2 F4 | z2 E2 D2 E2 | C4 C2 E2 | %75
w: de|Dios e- ter-|no,|de Dios e-|ter- no,|¿de quién?|de Dios,|de Dios e-|ter- no, de|
 E2 E2 C2 D2 | E2 _D2 C4 | C8 |] %78
w: Dios e- ter- no\_i-|gual al Pa-|dre.|
V:3
 F6 F2 | A4 G4 | A4 B4 | c8 | z8 | F6 F2 | A4 G4 | A4 B4 | c8 | z8 | c4 f4 | e6 e2 | d4 ((c4 | %13
w: De la|Vir- gen|que pa-|rió||y del|ni- ño|que na-|ció,||¿qué se|pue- de\_a-|cá sen-|
 c2) BA B4) | c4 G2 A2 | B4 G4 | A2 G2 F4 | G6 G2 | B2 B2 c2 c2 | G8 | z8 | z8 | z8 | F6 F2 | %24
w: |tir? ¿qué se|pue- de\_a-|cá sen- tir?|¿qué se|pue- de\_a- cá sen-|tir?||||Que su|
 A4 G4 | A4 B4 | c8 | z8 | c4 f4 | e6 e2 | d4 ((c4 | c2) BA B4) | c4 G2 A2 | B4 G4 | A2 G2 F4 | %35
w: Pa- dre|nos le|dió||pa- ra\_el|mun- do|re- di-||mir, pa- ra\_el|mun- do|re- di- mir,|
 G2 F2 G2 A2 | B4 c4 | G4 z4 | c4 f4 |"^3 Ten." e6 e2 | d4 ((c4 | c2) BA) B4 | c8 | z8 | c4 f4 | %45
w: pa- ra\_el mun- do|re- di-|mir,|pa- ra\_el|mun- do|re- *|* * * di-|mir,||pa- ra\_el|
 e4 c4 | (e4 f4) | d8 | c8 | z8 | z4 c4 | B2 G2 A2 F2 | B2 A2 G4 | F8 | z8 | z4 c4 | B2 G2 A2 F2 | %57
w: mun- do|re- *|di-|mir.||¡Oh|Vir- gen dig- na|de ser ma-|dre!||¡Oh|Vir- gen dig- na|
 B2 A2 G4 | F2 F2 c4 | z2 A2 c4 | z2 A2 c2 c2 | (A2 B2 A4) | G4 z4 | z8 | c4 B2 G2 | A2 F2 B2 A2 | %66
w: de ser ma-|dre! ¿de quién?|de Dios,|de Dios e-|ter- * *|no||de Dios e-|ter- no\_i- gual al|
 G4 F4 | z4 A4 | B2 A2 G4 | F4 z4 | z4 A4 | c4 z2 A2 | c4 z2 A2 | c2 c2 A2 B2 | A4 G2 c2 | %75
w: Pa- dre,|de|Dios e- ter-|no,|¿de|quién? de|Dios, de|Dios, de Dios e-|ter- no, de|
 B2 G2 A2 F2 | B2 A2 G4 | F8 |] %78
w: Dios e- ter- no\_i-|gual al Pa-|dre.|
V:4
 F,6 F,2 | F,4 =E,4 | F,4 _D,4 | C,8 | z8 | F,6 F,2 | F,4 =E,4 | F,4 _D,4 | C,8 | F,4 B,4 | %10
w: De la|Vir- gen|que pa-|rió||y del|ni- ño|que na-|ció,|¿qué se|
 A,4 F,4 | A,4 G,4 | F,6 E,D, | E,2 F,2"^1""^( )" D,4 | C,4 C,2 C2 | G,4 E,4 | F,2 E,2 D,4 | C,8 | %18
w: pue- de\_a-|cá *|sen- * *||tir? ¿qué se|pue- de\_a-|cá * sen-|tir?|
 z8 | z4 G,2 G,2 | A,4 F,4 | A,4 B,4 | C8 | z4 F,2 F,2 | F,4 =E,4 | F,4 _D,4 | C,8 | F,4 B,4 | %28
w: |Que su|Pa- dre|nos le|dió|Que su|Pa- dre|nos le|dió|pa- ra\_el|
 A,4 F,4 | A,4 G,4 | F,6 E,D, | E,2 F,2 D,4 | C,4 C,2 C,2 | G,4 E,4 | F,2 E,2 D,4 | C,8 | z8 | %37
w: mun- do|re- *|di- * *||mir, pa- ra\_el|mun- do|re- * di-|mir,||
 z4 G,2 G,2 | A,2 F,2 A,2 B,2 | C4 C,4 | G,2 F,2 E,2 D,2 | E,2 F,2 _D,4 | C,4 E,4 | B,4 A,4 | %44
w: Que su|Pa- dre nos le|dió *|pa- ra\_el mun- do|re- * di-|mir, pa-|ra\_el mun-|
 F,4 F,2 G,2 | A,2 B,2 ((C4 | C4) F,4) | G,8 | C,8 | z8 | z4 C,4 | D,2 E,2 F,2 A,2 | G,2 F,2 =E,4 | %53
w: do re- *|||di-|mir,||¡Oh|Vir- gen dig- na|de ser ma-|
 F,8 | z8 | z4 C,4 | D,2 E,2 F,2 A,2 | G,2 F,2 =E,4 | F,2 F,2 C,4 | z2 F,2 C,4 | z2 F,2 C,2 C,2 | %61
w: dre!||¡Oh|Vir- gen dig- na|de ser ma-|dre! ¿de quién?|de Dios,|de Dios e-|
 F,2 E,2 F,4 | C,4 z4 | z8 | C,4 D,2 E,2 | F,2 A,2 G,2 F,2 | =E,4 F,4 | z4 F,4 | G,2 F,2 =E,4 | %69
w: ter- * *|no||de Dios e-|ter- no\_i- gual al|Pa- dre,|de|Dios e- ter-|
 F,4 z4 | z4 F,4 | C,4 z2 F,2 | C,4 z2 F,2 | C,2 C,2 F,2 E,2 | F,4 C,2 C,2 | E,2 E,2 F,2 F,2 | %76
w: no,|¿de|quién? de|Dios, de|Dios, de Dios e-|ter- no, de|Dios e- ter- no\_i-|
 E,2 F,2 C,4 | F,,8 |] %78
w: gual al Pa-|dre.|

